X: 9
T:Conset Arglwyddes Treffael
M:3/4
L:1/8
Q:160
C:Trad
S:Blodau'r Grug Collection Vol. 2
R:Waltz
A:Wales
Z:brian_martin12345@yahoo.com
K:Am
E2|A4e2|c3de2|d4c2|B3A^G2|A4e2|c3de2|d2c2B2|A4:||
ef|g4g2|g3fe2|a4a2|a2g2^f2|g4g2|g3fe2|d2e2^f2|g4g2|
e4a2|e3dc2|d4c2|B3A^G2|A4e2|c3de2|d2c2B2|A4||
